tools/download-figma-icons/icons/outlined-large/connector-type2.svg

<svg width="64" height="64" viewBox="0 0 64 64" fill="none" xmlns="http://www.w3.org/2000/svg">
<path fill-rule="evenodd" clip-rule="evenodd" d="M7.83795 10.9709C9.11795 9.05095 11.2259 6.99996 13.3069 6.99996H50.7027C52.7297 6.99996 54.8057 8.98295 55.9667 10.6829C57.5177 12.9489 58.7317 15.4099 59.5737 17.9939C60.5207 20.9019 60.9997 23.9329 60.9997 26.9998C60.9997 31.6898 59.9117 36.1678 57.7677 40.3098C52.7507 49.9877 42.8768 55.9997 31.9998 55.9997C21.1229 55.9997 11.2489 49.9877 6.23296 40.3108C4.08798 36.1678 2.99998 31.6898 2.99998 26.9998C2.99998 23.9329 3.47998 20.9019 4.42597 17.9949C5.23397 15.5209 6.38096 13.1569 7.83795 10.9709ZM3.56898 41.6898C9.10395 52.3667 19.9979 58.9997 31.9998 58.9997C44.0017 58.9997 54.8967 52.3667 60.4317 41.6888C62.7656 37.1818 63.9996 32.1018 63.9996 26.9998C63.9996 23.6159 63.4706 20.2739 62.4256 17.0649C61.4946 14.2089 60.1547 11.4909 58.4437 8.98895C56.7937 6.57696 53.8947 3.99998 50.7027 3.99998H13.3069C9.19895 3.99998 6.17196 8.06195 5.34197 9.30695C3.73398 11.7209 2.46599 14.3309 1.57399 17.0659C0.529997 20.2739 0 23.6159 0 26.9998C0 32.1018 1.23499 37.1818 3.56898 41.6898ZM20.0003 15.4999C20.0003 13.5699 21.5703 11.9999 23.5003 11.9999C25.4303 11.9999 27.0002 13.5699 27.0002 15.4999C27.0002 17.4299 25.4303 18.9999 23.5003 18.9999C21.5703 18.9999 20.0003 17.4299 20.0003 15.4999ZM18.0003 15.4999C18.0003 18.5319 20.4683 20.9999 23.5003 20.9999C26.5322 20.9999 29.0002 18.5319 29.0002 15.4999C29.0002 12.4679 26.5322 9.99994 23.5003 9.99994C20.4683 9.99994 18.0003 12.4679 18.0003 15.4999ZM14.0003 24.9999C11.7943 24.9999 10.0003 26.7938 10.0003 28.9998C10.0003 31.2058 11.7943 32.9998 14.0003 32.9998C16.2063 32.9998 18.0003 31.2058 18.0003 28.9998C18.0003 26.7938 16.2063 24.9999 14.0003 24.9999ZM14.0003 35.9998C10.1413 35.9998 7.00036 32.8588 7.00036 28.9998C7.00036 25.1409 10.1413 21.9999 14.0003 21.9999C17.8593 21.9999 21.0003 25.1409 21.0003 28.9998C21.0003 32.8588 17.8593 35.9998 14.0003 35.9998ZM28.0002 28.9998C28.0002 26.7938 29.7942 24.9999 32.0002 24.9999C34.2062 24.9999 36.0002 26.7938 36.0002 28.9998C36.0002 31.2058 34.2062 32.9998 32.0002 32.9998C29.7942 32.9998 28.0002 31.2058 28.0002 28.9998ZM25.0003 28.9998C25.0003 32.8588 28.1412 35.9998 32.0002 35.9998C35.8592 35.9998 39.0002 32.8588 39.0002 28.9998C39.0002 25.1409 35.8592 21.9999 32.0002 21.9999C28.1412 21.9999 25.0003 25.1409 25.0003 28.9998ZM46.0001 28.9998C46.0001 26.7938 47.7941 24.9999 50.0001 24.9999C52.2061 24.9999 54.0001 26.7938 54.0001 28.9998C54.0001 31.2058 52.2061 32.9998 50.0001 32.9998C47.7941 32.9998 46.0001 31.2058 46.0001 28.9998ZM43.0002 28.9998C43.0002 32.8588 46.1411 35.9998 50.0001 35.9998C53.8591 35.9998 57.0001 32.8588 57.0001 28.9998C57.0001 25.1409 53.8591 21.9999 50.0001 21.9999C46.1411 21.9999 43.0002 25.1409 43.0002 28.9998ZM37.0002 43.9997C37.0002 41.7938 38.7942 39.9998 41.0002 39.9998C43.2062 39.9998 45.0001 41.7938 45.0001 43.9997C45.0001 46.2057 43.2062 47.9997 41.0002 47.9997C38.7942 47.9997 37.0002 46.2057 37.0002 43.9997ZM34.0002 43.9997C34.0002 47.8587 37.1412 50.9997 41.0002 50.9997C44.8591 50.9997 48.0001 47.8587 48.0001 43.9997C48.0001 40.1408 44.8591 36.9998 41.0002 36.9998C37.1412 36.9998 34.0002 40.1408 34.0002 43.9997ZM23.0003 39.9998C20.7943 39.9998 19.0003 41.7938 19.0003 43.9997C19.0003 46.2057 20.7943 47.9997 23.0003 47.9997C25.2063 47.9997 27.0002 46.2057 27.0002 43.9997C27.0002 41.7938 25.2063 39.9998 23.0003 39.9998ZM23.0003 50.9997C19.1413 50.9997 16.0003 47.8587 16.0003 43.9997C16.0003 40.1408 19.1413 36.9998 23.0003 36.9998C26.8592 36.9998 30.0002 40.1408 30.0002 43.9997C30.0002 47.8587 26.8592 50.9997 23.0003 50.9997ZM40.5002 11.9999C38.5702 11.9999 37.0002 13.5699 37.0002 15.4999C37.0002 17.4299 38.5702 18.9999 40.5002 18.9999C42.4302 18.9999 44.0001 17.4299 44.0001 15.4999C44.0001 13.5699 42.4302 11.9999 40.5002 11.9999ZM40.5002 20.9999C37.4682 20.9999 35.0002 18.5319 35.0002 15.4999C35.0002 12.4679 37.4682 9.99994 40.5002 9.99994C43.5322 9.99994 46.0001 12.4679 46.0001 15.4999C46.0001 18.5319 43.5322 20.9999 40.5002 20.9999Z" fill="black"/>
</svg>

<svg xmlns="http://www.w3.org/2000/svg" width="64" height="64" fill="none" viewBox="0 0 64 64"><path fill="currentColor" fill-rule="evenodd" d="M7.838 10.97C9.118 9.05 11.226 7 13.307 7h37.396c2.027 0 4.103 1.983 5.264 3.683a28.7 28.7 0 0 1 3.607 7.31A29 29 0 0 1 61 27c0 4.69-1.088 9.168-3.232 13.31C52.75 49.988 42.877 56 32 56S11.249 49.988 6.233 40.31A28.7 28.7 0 0 1 3 27c0-3.067.48-6.098 1.426-9.005a28.8 28.8 0 0 1 3.412-7.024M3.569 41.69C9.104 52.367 19.998 59 31.999 59c12.003 0 22.898-6.633 28.433-17.311a32.08 32.08 0 0 0 1.994-24.624 31.7 31.7 0 0 0-3.982-8.076C56.794 6.577 53.894 4 50.703 4H13.307C9.199 4 6.172 8.062 5.342 9.307a31.8 31.8 0 0 0-3.768 7.759A32 32 0 0 0 0 27a32.1 32.1 0 0 0 3.569 14.69M20 15.5c0-1.93 1.57-3.5 3.5-3.5s3.5 1.57 3.5 3.5-1.57 3.5-3.5 3.5-3.5-1.57-3.5-3.5m-2 0c0 3.032 2.468 5.5 5.5 5.5s5.5-2.468 5.5-5.5-2.468-5.5-5.5-5.5a5.507 5.507 0 0 0-5.5 5.5M14 25c-2.206 0-4 1.794-4 4s1.794 4 4 4 4-1.794 4-4-1.794-4-4-4m0 11c-3.859 0-7-3.141-7-7s3.141-7 7-7 7 3.14 7 7-3.14 7-7 7m14-7c0-2.206 1.794-4 4-4s4 1.794 4 4-1.794 4-4 4-4-1.794-4-4m-3 0c0 3.859 3.141 7 7 7s7-3.141 7-7-3.14-7-7-7-7 3.14-7 7m21 0c0-2.206 1.794-4 4-4s4 1.794 4 4-1.794 4-4 4-4-1.794-4-4m-3 0c0 3.859 3.141 7 7 7s7-3.141 7-7-3.14-7-7-7-7 3.14-7 7m-6 15c0-2.206 1.794-4 4-4s4 1.794 4 4-1.794 4-4 4-4-1.794-4-4m-3 0c0 3.859 3.141 7 7 7s7-3.141 7-7-3.14-7-7-7-7 3.14-7 7m-11-4c-2.206 0-4 1.794-4 4s1.794 4 4 4 4-1.794 4-4-1.794-4-4-4m0 11c-3.859 0-7-3.141-7-7s3.141-7 7-7 7 3.14 7 7-3.14 7-7 7m17.5-39c-1.93 0-3.5 1.57-3.5 3.5s1.57 3.5 3.5 3.5 3.5-1.57 3.5-3.5-1.57-3.5-3.5-3.5m0 9a5.507 5.507 0 0 1-5.5-5.5c0-3.032 2.468-5.5 5.5-5.5s5.5 2.468 5.5 5.5-2.468 5.5-5.5 5.5" clip-rule="evenodd"/></svg>
